X:1
T: Delnabo
C:
R:Strathspey
Q: 128
K:Em
M:4/4
L:1/16
|:B,2|E4 G3E B3E G3E|A4 G3E F3D D4|G4 B3G d3G B3G|ABc2 B3A G3E E2B,2|
E4 G3E B3E G3E|A4 G3E F3D D4|G4 B3G d3G B3G|ABc2 B3^d e3E E2f2|
gfe2 B3^d e3f g3e|d3f A3d F3A D3f|gfe2 B3^d e3f g3e|fc'3 b3a ge3 e3f|
gfe2 B3^d e3f gfe2|d3f A3d F3A D3F|((3G2F2E2) ((3A2G2F2) ((3B2A2G2) ((3c2B2A2) |B3e ^d3b ge3 e2:|
